symbols/web/apps/materialsymbolsoutlined/apps_wght700grad200_24px.svg

<svg xmlns="http://www.w3.org/2000/svg" height="24" width="24"><path d="M5.425 21.15q-1.05 0-1.813-.763-.762-.762-.762-1.812 0-1.075.762-1.825.763-.75 1.813-.75 1.075 0 1.825.75T8 18.575q0 1.05-.75 1.812-.75.763-1.825.763Zm6.575 0q-1.05 0-1.812-.763-.763-.762-.763-1.812 0-1.075.763-1.825Q10.95 16 12 16t1.812.75q.763.75.763 1.825 0 1.05-.763 1.812-.762.763-1.812.763Zm6.575 0q-1.075 0-1.825-.763-.75-.762-.75-1.812 0-1.075.75-1.825t1.825-.75q1.05 0 1.813.75.762.75.762 1.825 0 1.05-.762 1.812-.763.763-1.813.763Zm-13.15-6.575q-1.05 0-1.813-.763Q2.85 13.05 2.85 12t.762-1.812q.763-.763 1.813-.763 1.075 0 1.825.763Q8 10.95 8 12t-.75 1.812q-.75.763-1.825.763Zm6.575 0q-1.05 0-1.812-.763-.763-.762-.763-1.812t.763-1.812q.762-.763 1.812-.763t1.812.763q.763.762.763 1.812t-.763 1.812q-.762.763-1.812.763Zm6.575 0q-1.075 0-1.825-.763Q16 13.05 16 12t.75-1.812q.75-.763 1.825-.763 1.05 0 1.813.763.762.762.762 1.812t-.762 1.812q-.763.763-1.813.763ZM5.425 8q-1.05 0-1.813-.75-.762-.75-.762-1.825 0-1.05.762-1.813.763-.762 1.813-.762 1.075 0 1.825.762.75.763.75 1.813Q8 6.5 7.25 7.25T5.425 8ZM12 8q-1.05 0-1.812-.75-.763-.75-.763-1.825 0-1.05.763-1.813Q10.95 2.85 12 2.85t1.812.762q.763.763.763 1.813 0 1.075-.763 1.825Q13.05 8 12 8Zm6.575 0Q17.5 8 16.75 7.25T16 5.425q0-1.05.75-1.813.75-.762 1.825-.762 1.05 0 1.813.762.762.763.762 1.813 0 1.075-.762 1.825-.763.75-1.813.75Z"/></svg>

<svg xmlns="http://www.w3.org/2000/svg" height="24" width="24"><path d="M5.425 8Q4.375 8 3.612 7.25Q2.85 6.5 2.85 5.425Q2.85 4.375 3.612 3.612Q4.375 2.85 5.425 2.85Q6.5 2.85 7.25 3.612Q8 4.375 8 5.425Q8 6.5 7.25 7.25Q6.5 8 5.425 8ZM12 21.15Q10.95 21.15 10.188 20.387Q9.425 19.625 9.425 18.575Q9.425 17.5 10.188 16.75Q10.95 16 12 16Q13.05 16 13.812 16.75Q14.575 17.5 14.575 18.575Q14.575 19.625 13.812 20.387Q13.05 21.15 12 21.15ZM5.425 21.15Q4.375 21.15 3.612 20.387Q2.85 19.625 2.85 18.575Q2.85 17.5 3.612 16.75Q4.375 16 5.425 16Q6.5 16 7.25 16.75Q8 17.5 8 18.575Q8 19.625 7.25 20.387Q6.5 21.15 5.425 21.15ZM5.425 14.575Q4.375 14.575 3.612 13.812Q2.85 13.05 2.85 12Q2.85 10.95 3.612 10.188Q4.375 9.425 5.425 9.425Q6.5 9.425 7.25 10.188Q8 10.95 8 12Q8 13.05 7.25 13.812Q6.5 14.575 5.425 14.575ZM12 14.575Q10.95 14.575 10.188 13.812Q9.425 13.05 9.425 12Q9.425 10.95 10.188 10.188Q10.95 9.425 12 9.425Q13.05 9.425 13.812 10.188Q14.575 10.95 14.575 12Q14.575 13.05 13.812 13.812Q13.05 14.575 12 14.575ZM18.575 8Q17.5 8 16.75 7.25Q16 6.5 16 5.425Q16 4.375 16.75 3.612Q17.5 2.85 18.575 2.85Q19.625 2.85 20.388 3.612Q21.15 4.375 21.15 5.425Q21.15 6.5 20.388 7.25Q19.625 8 18.575 8ZM12 8Q10.95 8 10.188 7.25Q9.425 6.5 9.425 5.425Q9.425 4.375 10.188 3.612Q10.95 2.85 12 2.85Q13.05 2.85 13.812 3.612Q14.575 4.375 14.575 5.425Q14.575 6.5 13.812 7.25Q13.05 8 12 8ZM18.575 14.575Q17.5 14.575 16.75 13.812Q16 13.05 16 12Q16 10.95 16.75 10.188Q17.5 9.425 18.575 9.425Q19.625 9.425 20.388 10.188Q21.15 10.95 21.15 12Q21.15 13.05 20.388 13.812Q19.625 14.575 18.575 14.575ZM18.575 21.15Q17.5 21.15 16.75 20.387Q16 19.625 16 18.575Q16 17.5 16.75 16.75Q17.5 16 18.575 16Q19.625 16 20.388 16.75Q21.15 17.5 21.15 18.575Q21.15 19.625 20.388 20.387Q19.625 21.15 18.575 21.15Z"/></svg>
